X:1
T:Adieu Madras
M:6/8
L:1/8
K:F
 C| F2 F F2 A| B2 B B2 B| c2 c ccc| B2 e B2 B| B2 c G2 B| A2 c F2 A|\
 G2 B E2 E| F2 A c2 c| B2 d G2 B| A2 c F2 A| G2 B E2 E| F2 A F2 z|\
